exported-svg/frown.svg

<svg height="24" viewBox="0 0 24 24" width="24" xmlns="http://www.w3.org/2000/svg"><path d="m12.5 23c-5.79898987 0-10.5-4.7010101-10.5-10.5 0-5.79898987 4.70101013-10.5 10.5-10.5 5.7989899 0 10.5 4.70101013 10.5 10.5 0 5.7989899-4.7010101 10.5-10.5 10.5zm0-1c5.2467051 0 9.5-4.2532949 9.5-9.5 0-5.24670512-4.2532949-9.5-9.5-9.5-5.24670512 0-9.5 4.25329488-9.5 9.5 0 5.2467051 4.25329488 9.5 9.5 9.5zm4.4-5.8c.1656854.2209139.1209139.5343146-.1.7s-.5343146.1209139-.7-.1c-.0353105-.0470806-.1142783-.14117-.2344316-.2665473-.2050006-.2139137-.4466795-.4287394-.7221542-.6290847-.7796729-.5670348-1.6651726-.904368-2.6434142-.904368s-1.8637413.3373332-2.64341415.904368c-.2754747.2003453-.51715363.415171-.72215425.6290847-.12015326.1253773-.19912115.2194667-.2344316.2665473-.16568542.2209139-.4790861.2656854-.7.1s-.26568542-.4790861-.1-.7c.21519089-.2869212.60795307-.69676 1.16841415-1.104368.93907715-.6829652 2.02232745-1.095632 3.23158585-1.095632s2.2925087.4126668 3.2315858 1.095632c.5604611.407608.9532233.8174468 1.1684142 1.104368zm-7.4-6.2c-.27614237 0-.5-.22385763-.5-.5s.22385763-.5.5-.5h.01c.27614237 0 .5.22385763.5.5s-.22385763.5-.5.5zm6 0c-.2761424 0-.5-.22385763-.5-.5s.2238576-.5.5-.5h.01c.2761424 0 .5.22385763.5.5s-.2238576.5-.5.5z"/></svg>

<?xml version="1.0" encoding="UTF-8"?>
<svg width="24px" height="24px" viewBox="0 0 24 24" version="1.1" xmlns="http://www.w3.org/2000/svg" xmlns:xlink="http://www.w3.org/1999/xlink">
    <!-- Generator: Sketch 55.2 (78181) - https://sketchapp.com -->
    <title>frown</title>
    <desc>Created with Sketch.</desc>
    <g id="frown" stroke="none" stroke-width="1" fill="none" fill-rule="evenodd">
        <path d="M12.5,23 C6.70101013,23 2,18.2989899 2,12.5 C2,6.70101013 6.70101013,2 12.5,2 C18.2989899,2 23,6.70101013 23,12.5 C23,18.2989899 18.2989899,23 12.5,23 Z M12.5,22 C17.7467051,22 22,17.7467051 22,12.5 C22,7.25329488 17.7467051,3 12.5,3 C7.25329488,3 3,7.25329488 3,12.5 C3,17.7467051 7.25329488,22 12.5,22 Z M16.9,16.2 C17.0656854,16.4209139 17.0209139,16.7343146 16.8,16.9 C16.5790861,17.0656854 16.2656854,17.0209139 16.1,16.8 C16.0646895,16.7529194 15.9857217,16.65883 15.8655684,16.5334527 C15.6605678,16.319539 15.4188889,16.1047133 15.1434142,15.904368 C14.3637413,15.3373332 13.4782416,15 12.5,15 C11.5217584,15 10.6362587,15.3373332 9.85658585,15.904368 C9.58111115,16.1047133 9.33943222,16.319539 9.1344316,16.5334527 C9.01427834,16.65883 8.93531045,16.7529194 8.9,16.8 C8.73431458,17.0209139 8.4209139,17.0656854 8.2,16.9 C7.9790861,16.7343146 7.93431458,16.4209139 8.1,16.2 C8.31519089,15.9130788 8.70795307,15.50324 9.26841415,15.095632 C10.2074913,14.4126668 11.2907416,14 12.5,14 C13.7092584,14 14.7925087,14.4126668 15.7315858,15.095632 C16.2920469,15.50324 16.6848091,15.9130788 16.9,16.2 Z M9.5,10 C9.22385763,10 9,9.77614237 9,9.5 C9,9.22385763 9.22385763,9 9.5,9 L9.51,9 C9.78614237,9 10.01,9.22385763 10.01,9.5 C10.01,9.77614237 9.78614237,10 9.51,10 L9.5,10 Z M15.5,10 C15.2238576,10 15,9.77614237 15,9.5 C15,9.22385763 15.2238576,9 15.5,9 L15.51,9 C15.7861424,9 16.01,9.22385763 16.01,9.5 C16.01,9.77614237 15.7861424,10 15.51,10 L15.5,10 Z" id="Combined-Shape" fill="#000000" fill-rule="nonzero"></path>
    </g>
</svg>
